images/img_MBR_01_deco1.svg

<svg width="17" height="259" viewBox="0 0 17 259" fill="none" xmlns="http://www.w3.org/2000/svg">
<path d="M0.72 5.9C0.72 4.75333 0.86 3.64667 1.14 2.58C1.43333 1.52667 1.80667 0.666667 2.26 0L5.18 1.3C4.78 1.92667 4.44667 2.64667 4.18 3.46C3.92667 4.28667 3.8 5.10667 3.8 5.92C3.8 6.46667 3.84667 6.90667 3.94 7.24C4.04667 7.57333 4.18 7.81333 4.34 7.96C4.51333 8.12 4.71333 8.2 4.94 8.2C5.26 8.2 5.51333 8.05333 5.7 7.76C5.88667 7.46667 6.04 7.08667 6.16 6.62C6.28 6.15333 6.4 5.63333 6.52 5.06C6.64 4.5 6.79333 3.93333 6.98 3.36C7.16667 2.8 7.40667 2.28667 7.7 1.82C8.00667 1.35333 8.4 0.973333 8.88 0.68C9.37333 0.386667 9.99333 0.24 10.74 0.24C11.58 0.24 12.34 0.466667 13.02 0.92C13.7 1.38667 14.2467 2.08 14.66 3C15.0733 3.92 15.28 5.06667 15.28 6.44C15.28 7.36 15.1733 8.26 14.96 9.14C14.76 10.0333 14.46 10.8267 14.06 11.52L11.12 10.3C11.48 9.63333 11.7467 8.97333 11.92 8.32C12.1067 7.66667 12.2 7.03333 12.2 6.42C12.2 5.87333 12.14 5.43333 12.02 5.1C11.9133 4.76667 11.7667 4.52667 11.58 4.38C11.3933 4.23333 11.18 4.16 10.94 4.16C10.6333 4.16 10.3867 4.3 10.2 4.58C10.0267 4.87333 9.88 5.25333 9.76 5.72C9.65333 6.2 9.54 6.72 9.42 7.28C9.3 7.85333 9.14667 8.42 8.96 8.98C8.78667 9.55333 8.54667 10.0733 8.24 10.54C7.94667 11.0067 7.55333 11.38 7.06 11.66C6.58 11.9533 5.97333 12.1 5.24 12.1C4.42667 12.1 3.67333 11.8667 2.98 11.4C2.3 10.9467 1.75333 10.26 1.34 9.34C0.926666 8.43333 0.72 7.28667 0.72 5.9Z" fill="white"/>
<path d="M1 15.9292H15V22.3292C15 23.6092 14.7933 24.7092 14.38 25.6292C13.9667 26.5626 13.3667 27.2826 12.58 27.7892C11.8067 28.2959 10.8867 28.5492 9.82 28.5492C8.76667 28.5492 7.85333 28.2959 7.08 27.7892C6.30667 27.2826 5.70667 26.5626 5.28 25.6292C4.86667 24.7092 4.66 23.6092 4.66 22.3292V18.1292L6.38 19.8892H1V15.9292ZM5.96 19.8892L7.78 18.1292V22.0892C7.78 22.9159 7.96 23.5292 8.32 23.9292C8.68 24.3426 9.18 24.5492 9.82 24.5492C10.4733 24.5492 10.98 24.3426 11.34 23.9292C11.7 23.5292 11.88 22.9159 11.88 22.0892V18.1292L13.7 19.8892H5.96Z" fill="white"/>
<path d="M9.58 36.12V42.62H6.62V36.12H9.58ZM4.06 36.4V43.72H1V32.48H15V43.46H11.94V36.4H4.06Z" fill="white"/>
<path d="M0.72 54.8975C0.72 53.7908 0.893333 52.7642 1.24 51.8175C1.6 50.8842 2.10667 50.0708 2.76 49.3775C3.41333 48.6975 4.18 48.1642 5.06 47.7775C5.95333 47.3908 6.93333 47.1975 8 47.1975C9.06667 47.1975 10.04 47.3908 10.92 47.7775C11.8133 48.1642 12.5867 48.6975 13.24 49.3775C13.8933 50.0708 14.3933 50.8842 14.74 51.8175C15.1 52.7642 15.28 53.7908 15.28 54.8975C15.28 56.1908 15.0533 57.3442 14.6 58.3575C14.1467 59.3842 13.4933 60.2375 12.64 60.9175L10.36 58.3975C10.8933 57.9442 11.3 57.4442 11.58 56.8975C11.86 56.3642 12 55.7642 12 55.0975C12 54.5242 11.9067 53.9975 11.72 53.5175C11.5333 53.0375 11.26 52.6242 10.9 52.2775C10.5533 51.9442 10.1333 51.6775 9.64 51.4775C9.14667 51.2908 8.6 51.1975 8 51.1975C7.4 51.1975 6.85333 51.2908 6.36 51.4775C5.86667 51.6775 5.44 51.9442 5.08 52.2775C4.73333 52.6242 4.46667 53.0375 4.28 53.5175C4.09333 53.9975 4 54.5242 4 55.0975C4 55.7642 4.14 56.3642 4.42 56.8975C4.7 57.4442 5.10667 57.9442 5.64 58.3975L3.36 60.9175C2.52 60.2375 1.86667 59.3842 1.4 58.3575C0.946667 57.3442 0.72 56.1908 0.72 54.8975Z" fill="white"/>
<path d="M1 64.6831H15V68.6431H1V64.6831Z" fill="white"/>
<path d="M1 71.7805L15 77.9605V81.8605L1 88.0605V83.9405L13.06 79.1005V80.6605L1 75.8205V71.7805ZM3.72 75.1605L6.64 76.1805V83.0205L3.72 84.0405V75.1605Z" fill="white"/>
<path d="M1 91.1831H15V95.1431H4.14V101.823H1V91.1831Z" fill="white"/>
<path d="M0.72 120.27C0.72 119.15 0.9 118.117 1.26 117.17C1.62 116.224 2.12667 115.397 2.78 114.69C3.44667 113.997 4.22 113.457 5.1 113.07C5.98 112.684 6.94667 112.49 8 112.49C9.05333 112.49 10.02 112.684 10.9 113.07C11.78 113.457 12.5467 113.997 13.2 114.69C13.8667 115.397 14.38 116.224 14.74 117.17C15.1 118.117 15.28 119.15 15.28 120.27C15.28 121.404 15.1 122.437 14.74 123.37C14.38 124.317 13.8667 125.137 13.2 125.83C12.5467 126.524 11.78 127.064 10.9 127.45C10.02 127.85 9.05333 128.05 8 128.05C6.94667 128.05 5.97333 127.85 5.08 127.45C4.2 127.064 3.43333 126.524 2.78 125.83C2.12667 125.137 1.62 124.317 1.26 123.37C0.9 122.437 0.72 121.404 0.72 120.27ZM4 120.27C4 120.804 4.09333 121.297 4.28 121.75C4.46667 122.217 4.73333 122.617 5.08 122.95C5.44 123.297 5.86667 123.564 6.36 123.75C6.85333 123.95 7.4 124.05 8 124.05C8.61333 124.05 9.16 123.95 9.64 123.75C10.1333 123.564 10.5533 123.297 10.9 122.95C11.26 122.617 11.5333 122.217 11.72 121.75C11.9067 121.297 12 120.804 12 120.27C12 119.737 11.9067 119.237 11.72 118.77C11.5333 118.317 11.26 117.917 10.9 117.57C10.5533 117.237 10.1333 116.97 9.64 116.77C9.16 116.584 8.61333 116.49 8 116.49C7.4 116.49 6.85333 116.584 6.36 116.77C5.86667 116.97 5.44 117.237 5.08 117.57C4.73333 117.917 4.46667 118.317 4.28 118.77C4.09333 119.237 4 119.737 4 120.27Z" fill="white"/>
<path d="M8.86 135.805V142.265H5.8V135.805H8.86ZM1 136.085V132.125H15V143.105H11.94V136.085H1Z" fill="white"/>
<path d="M8.86 150.637V157.097H5.8V150.637H8.86ZM1 150.917V146.957H15V157.937H11.94V150.917H1Z" fill="white"/>
<path d="M9.58 165.429V171.929H6.62V165.429H9.58ZM4.06 165.709V173.029H1V161.789H15V172.769H11.94V165.709H4.06Z" fill="white"/>
<path d="M1 177.226H15V183.626C15 184.906 14.7933 186.006 14.38 186.926C13.9667 187.859 13.3667 188.579 12.58 189.086C11.8067 189.593 10.8867 189.846 9.82 189.846C8.76667 189.846 7.85333 189.593 7.08 189.086C6.32 188.579 5.73333 187.859 5.32 186.926C4.92 186.006 4.72 184.906 4.72 183.626V179.426L6.38 181.186H1V177.226ZM1 185.886L6.1 182.406V186.626L1 190.126V185.886ZM5.96 181.186L7.78 179.426V183.386C7.78 184.213 7.96 184.826 8.32 185.226C8.68 185.639 9.18 185.846 9.82 185.846C10.4733 185.846 10.98 185.639 11.34 185.226C11.7 184.826 11.88 184.213 11.88 183.386V179.426L13.7 181.186H5.96Z" fill="white"/>
<path d="M8.24526 203.225C7.42073 207.769 4.04686 211.175 0 211.175C4.04686 211.175 7.42073 214.582 8.24526 219.126C9.05196 214.666 12.3189 211.319 16.2588 211.19C16.2588 211.18 16.2588 211.17 16.2588 211.161C12.3144 211.032 9.0475 207.68 8.2408 203.225H8.24526Z" fill="white"/>
<path d="M8.24526 222.676C7.42073 227.22 4.04686 230.627 0 230.627C4.04686 230.627 7.42073 234.033 8.24526 238.577C9.05196 234.117 12.3189 230.77 16.2588 230.642C16.2588 230.632 16.2588 230.622 16.2588 230.612C12.3144 230.483 9.0475 227.131 8.2408 222.676H8.24526Z" fill="#FF7D04"/>
<path d="M8.24526 242.131C7.42073 246.675 4.04686 250.082 0 250.082C4.04686 250.082 7.42073 253.489 8.24526 258.033C9.05196 253.573 12.3189 250.225 16.2588 250.097C16.2588 250.087 16.2588 250.077 16.2588 250.067C12.3144 249.938 9.0475 246.586 8.2408 242.131H8.24526Z" fill="#23A099"/>
</svg>

<?xml version="1.0" encoding="UTF-8"?>
<svg id="_圖層_1" data-name="圖層_1" xmlns="http://www.w3.org/2000/svg" version="1.1" viewBox="0 0 16.26 258.03">
  <!-- Generator: Adobe Illustrator 30.6.0, SVG Export Plug-In . SVG Version: 2.1.4 Build 109)  -->
  <defs>
    <style>
      .st0 {
        fill: #ff7d04;
      }

      .st1 {
        fill: #fff;
      }

      .st2 {
        fill: #23a099;
      }
    </style>
  </defs>
  <path class="st1" d="M.72,5.9c0-1.15.14-2.25.42-3.32.29-1.05.67-1.91,1.12-2.58l2.92,1.3c-.4.63-.73,1.35-1,2.16-.25.83-.38,1.65-.38,2.46,0,.55.05.99.14,1.32.11.33.24.57.4.72.17.16.37.24.6.24.32,0,.57-.15.76-.44.19-.29.34-.67.46-1.14.12-.47.24-.99.36-1.56.12-.56.27-1.13.46-1.7.19-.56.43-1.07.72-1.54.31-.47.7-.85,1.18-1.14.49-.29,1.11-.44,1.86-.44.84,0,1.6.23,2.28.68.68.47,1.23,1.16,1.64,2.08.41.92.62,2.07.62,3.44,0,.92-.11,1.82-.32,2.7-.2.89-.5,1.69-.9,2.38l-2.94-1.22c.36-.67.63-1.33.8-1.98.19-.65.28-1.29.28-1.9,0-.55-.06-.99-.18-1.32-.11-.33-.25-.57-.44-.72-.19-.15-.4-.22-.64-.22-.31,0-.55.14-.74.42-.17.29-.32.67-.44,1.14-.11.48-.22,1-.34,1.56-.12.57-.27,1.14-.46,1.7-.17.57-.41,1.09-.72,1.56-.29.47-.69.84-1.18,1.12-.48.29-1.09.44-1.82.44-.81,0-1.57-.23-2.26-.7-.68-.45-1.23-1.14-1.64-2.06-.41-.91-.62-2.05-.62-3.44Z"/>
  <path class="st1" d="M1,15.93h14v6.4c0,1.28-.21,2.38-.62,3.3-.41.93-1.01,1.65-1.8,2.16-.77.51-1.69.76-2.76.76s-1.97-.25-2.74-.76c-.77-.51-1.37-1.23-1.8-2.16-.41-.92-.62-2.02-.62-3.3v-4.2l1.72,1.76H1v-3.96ZM5.96,19.89l1.82-1.76v3.96c0,.83.18,1.44.54,1.84.36.41.86.62,1.5.62s1.16-.21,1.52-.62c.36-.4.54-1.01.54-1.84v-3.96l1.82,1.76h-7.74Z"/>
  <path class="st1" d="M9.58,36.12v6.5h-2.96v-6.5h2.96ZM4.06,36.4v7.32H1v-11.24h14v10.98h-3.06v-7.06h-7.88Z"/>
  <path class="st1" d="M.72,54.9c0-1.11.17-2.13.52-3.08.36-.93.87-1.75,1.52-2.44.65-.68,1.42-1.21,2.3-1.6.89-.39,1.87-.58,2.94-.58s2.04.19,2.92.58c.89.39,1.67.92,2.32,1.6.65.69,1.15,1.51,1.5,2.44.36.95.54,1.97.54,3.08,0,1.29-.23,2.45-.68,3.46-.45,1.03-1.11,1.88-1.96,2.56l-2.28-2.52c.53-.45.94-.95,1.22-1.5.28-.53.42-1.13.42-1.8,0-.57-.09-1.1-.28-1.58-.19-.48-.46-.89-.82-1.24-.35-.33-.77-.6-1.26-.8-.49-.19-1.04-.28-1.64-.28s-1.15.09-1.64.28c-.49.2-.92.47-1.28.8-.35.35-.61.76-.8,1.24-.19.48-.28,1.01-.28,1.58,0,.67.14,1.27.42,1.8.28.55.69,1.05,1.22,1.5l-2.28,2.52c-.84-.68-1.49-1.53-1.96-2.56-.45-1.01-.68-2.17-.68-3.46Z"/>
  <path class="st1" d="M1,64.68h14v3.96H1v-3.96Z"/>
  <path class="st1" d="M1,71.78l14,6.18v3.9l-14,6.2v-4.12l12.06-4.84v1.56l-12.06-4.84v-4.04ZM3.72,75.16l2.92,1.02v6.84l-2.92,1.02v-8.88Z"/>
  <path class="st1" d="M1,91.18h14v3.96H4.14v6.68H1v-10.64Z"/>
  <path class="st1" d="M.72,120.27c0-1.12.18-2.15.54-3.1.36-.95.87-1.77,1.52-2.48.67-.69,1.44-1.23,2.32-1.62.88-.39,1.85-.58,2.9-.58s2.02.19,2.9.58c.88.39,1.65.93,2.3,1.62.67.71,1.18,1.53,1.54,2.48.36.95.54,1.98.54,3.1s-.18,2.17-.54,3.1c-.36.95-.87,1.77-1.54,2.46-.65.69-1.42,1.23-2.3,1.62-.88.4-1.85.6-2.9.6s-2.03-.2-2.92-.6c-.88-.39-1.65-.93-2.3-1.62-.65-.69-1.16-1.51-1.52-2.46-.36-.93-.54-1.97-.54-3.1ZM4,120.27c0,.53.09,1.03.28,1.48.19.47.45.87.8,1.2.36.35.79.61,1.28.8.49.2,1.04.3,1.64.3s1.16-.1,1.64-.3c.49-.19.91-.45,1.26-.8.36-.33.63-.73.82-1.2.19-.45.28-.95.28-1.48s-.09-1.03-.28-1.5c-.19-.45-.46-.85-.82-1.2-.35-.33-.77-.6-1.26-.8-.48-.19-1.03-.28-1.64-.28s-1.15.09-1.64.28c-.49.2-.92.47-1.28.8-.35.35-.61.75-.8,1.2-.19.47-.28.97-.28,1.5Z"/>
  <path class="st1" d="M8.86,135.8v6.46h-3.06v-6.46h3.06ZM1,136.09v-3.96h14v10.98h-3.06v-7.02H1Z"/>
  <path class="st1" d="M8.86,150.64v6.46h-3.06v-6.46h3.06ZM1,150.92v-3.96h14v10.98h-3.06v-7.02H1Z"/>
  <path class="st1" d="M9.58,165.43v6.5h-2.96v-6.5h2.96ZM4.06,165.71v7.32H1v-11.24h14v10.98h-3.06v-7.06h-7.88Z"/>
  <path class="st1" d="M1,177.23h14v6.4c0,1.28-.21,2.38-.62,3.3-.41.93-1.01,1.65-1.8,2.16-.77.51-1.69.76-2.76.76s-1.97-.25-2.74-.76c-.76-.51-1.35-1.23-1.76-2.16-.4-.92-.6-2.02-.6-3.3v-4.2l1.66,1.76H1v-3.96ZM1,185.89l5.1-3.48v4.22l-5.1,3.5v-4.24ZM5.96,181.19l1.82-1.76v3.96c0,.83.18,1.44.54,1.84.36.41.86.62,1.5.62s1.16-.21,1.52-.62c.36-.4.54-1.01.54-1.84v-3.96l1.82,1.76h-7.74Z"/>
  <path class="st1" d="M8.25,203.23c-.82,4.54-4.2,7.95-8.25,7.95,4.05,0,7.42,3.41,8.25,7.95.81-4.46,4.07-7.81,8.01-7.94v-.03c-3.94-.13-7.21-3.48-8.02-7.94h0Z"/>
  <path class="st0" d="M8.25,222.68c-.82,4.54-4.2,7.95-8.25,7.95,4.05,0,7.42,3.41,8.25,7.95.81-4.46,4.07-7.81,8.01-7.93v-.03c-3.94-.13-7.21-3.48-8.02-7.94h0Z"/>
  <path class="st2" d="M8.25,242.13c-.82,4.54-4.2,7.95-8.25,7.95,4.05,0,7.42,3.41,8.25,7.95.81-4.46,4.07-7.81,8.01-7.94v-.03c-3.94-.13-7.21-3.48-8.02-7.94h0Z"/>
</svg>
